src/pos-icons/credit-card-plus.svg

<svg height="24" viewBox="0 0 24 24" width="24" xmlns="http://www.w3.org/2000/svg"><path d="m20 4h-16a2 2 0 0 0 -2 2v12a2 2 0 0 0 2 2h9.09a5.47 5.47 0 0 1 -.09-1 6 6 0 0 1 6-6 5.88 5.88 0 0 1 3 .81v-7.81a2 2 0 0 0 -2-2m0 7h-16v-3h16m0 7v3h3v2h-3v3h-2v-3h-3v-2h3v-3z"/></svg>

<?xml version="1.0" encoding="UTF-8"?><!DOCTYPE svg PUBLIC "-//W3C//DTD SVG 1.1//EN" "http://www.w3.org/Graphics/SVG/1.1/DTD/svg11.dtd"><svg xmlns="http://www.w3.org/2000/svg" xmlns:xlink="http://www.w3.org/1999/xlink" version="1.1" id="mdi-credit-card-plus" width="24" height="24" viewBox="0 0 24 24"><path d="M20 4H4A2 2 0 0 0 2 6V18A2 2 0 0 0 4 20H13.09A5.47 5.47 0 0 1 13 19A6 6 0 0 1 19 13A5.88 5.88 0 0 1 22 13.81V6A2 2 0 0 0 20 4M20 11H4V8H20M20 15V18H23V20H20V23H18V20H15V18H18V15Z" /></svg>
